<?xml version="1.0" encoding="UTF-8"?>
<map version="1.10" tiledversion="1.11.2" orientation="orthogonal" renderorder="right-down" width="84" height="45" tilewidth="18" tileheight="18" infinite="0" nextlayerid="7" nextobjectid="90">
 <tileset firstgid="1" name="02" tilewidth="18" tileheight="18" tilecount="81" columns="9">
  <image source="stone_packed.png" width="162" height="162"/>
 </tileset>
 <tileset firstgid="82" name="03" tilewidth="18" tileheight="18" tilecount="112" columns="16">
  <image source="tilemap_packed.png" width="288" height="126"/>
 </tileset>
 <tileset firstgid="194" name="02" tilewidth="18" tileheight="18" tilecount="81" columns="9">
  <properties>
   <property name="wall" type="bool" value="true"/>
  </properties>
  <image source="stone_packed.png" width="162" height="162"/>
  <tile id="0">
   <properties>
    <property name="wall" type="bool" value="true"/>
   </properties>
  </tile>
 </tileset>
 <tileset firstgid="275" name="03" tilewidth="18" tileheight="18" tilecount="112" columns="16">
  <image source="tilemap_packed.png" width="288" height="126"/>
 </tileset>
 <tileset firstgid="387" name="01" tilewidth="18" tileheight="18" tilecount="81" columns="9">
  <image source="rock_packed.png" width="162" height="162"/>
 </tileset>
 <tileset firstgid="468" name="01" tilewidth="18" tileheight="18" tilecount="81" columns="9">
  <properties>
   <property name="obstacle" type="bool" value="true"/>
  </properties>
  <image source="rock_packed.png" width="162" height="162"/>
  <tile id="0">
   <properties>
    <property name="obstacle" type="bool" value="true"/>
   </properties>
  </tile>
  <tile id="8">
   <properties>
    <property name="obstacle" type="bool" value="true"/>
   </properties>
  </tile>
 </tileset>
 <layer id="1" name="圖塊層 1" width="84" height="45">
  <data encoding="csv">
288,288,288,288,288,288,288,288,288,288,288,288,288,288,288,288,288,288,288,288,288,288,288,288,288,288,288,288,288,288,288,288,288,288,288,288,288,288,288,288,288,288,288,288,288,288,288,288,288,288,288,288,288,288,288,288,288,288,288,288,288,288,288,288,288,288,288,288,288,288,288,288,288,288,288,288,288,288,288,288,288,288,288,288,
288,288,288,288,288,288,288,288,288,288,288,288,288,288,288,288,288,288,288,288,288,288,288,288,288,288,288,288,288,288,288,288,288,288,288,288,288,288,288,288,288,288,288,288,288,288,288,288,288,288,288,288,288,288,288,288,288,288,288,288,288,288,288,288,288,288,288,288,288,288,288,288,288,288,288,288,288,288,288,288,288,288,288,288,
288,288,288,288,288,288,288,288,288,288,288,288,288,288,288,288,288,288,288,288,288,288,288,288,288,288,288,288,288,288,288,288,288,288,288,288,288,288,288,288,288,288,288,288,288,288,288,288,288,288,288,288,288,288,288,288,288,288,288,288,288,288,288,288,288,288,288,288,288,288,288,288,288,288,288,288,288,288,288,288,288,288,288,288,
288,288,288,210,210,210,210,210,210,210,210,210,210,210,288,288,288,288,288,288,288,288,288,210,210,210,210,210,210,210,210,210,210,288,288,288,288,288,288,210,210,210,210,210,288,288,288,288,288,288,210,210,210,210,210,210,210,210,210,210,288,288,288,288,288,288,288,288,288,17,210,210,210,210,210,210,210,210,210,210,288,288,288,288,
288,288,288,210,210,210,210,210,210,210,210,210,210,210,288,288,288,288,288,288,288,288,288,210,210,210,210,210,210,210,210,210,210,288,288,288,288,288,288,210,210,210,210,210,288,288,288,288,288,288,210,210,210,210,210,210,210,210,210,210,288,288,288,288,288,288,288,288,288,17,210,210,210,210,210,210,210,210,210,210,288,288,288,288,
288,288,288,210,210,210,210,210,210,210,210,210,17,17,288,288,288,288,288,288,288,288,288,210,210,210,210,210,210,210,210,210,17,288,288,288,288,288,288,210,210,210,210,210,288,288,288,288,288,288,210,210,210,210,210,210,210,210,210,210,288,288,288,288,288,288,288,288,288,17,210,210,210,210,210,210,210,210,210,210,288,288,288,288,
288,288,288,210,210,210,210,210,210,210,210,210,17,17,288,288,288,288,288,288,288,288,288,210,210,210,210,210,210,210,210,210,17,288,288,288,288,288,288,210,210,210,210,210,288,288,288,288,288,288,210,210,210,210,210,210,210,210,210,210,288,288,288,288,288,288,288,288,288,210,210,210,210,210,210,210,210,210,210,210,288,288,288,288,
288,288,288,288,288,288,288,288,288,288,210,210,17,17,288,288,288,288,288,288,288,288,288,288,288,288,210,210,210,210,288,288,288,288,288,288,288,288,288,210,210,210,210,210,288,288,288,288,288,288,288,288,288,210,210,210,210,288,288,288,288,288,288,288,288,288,288,288,288,210,210,210,210,288,288,288,288,288,288,288,288,288,288,288,
288,288,288,288,288,288,288,288,288,288,210,210,210,17,288,288,288,288,288,288,288,288,288,288,288,288,210,210,210,210,288,288,288,288,288,288,288,288,288,210,210,210,210,210,288,288,288,288,288,288,288,288,288,210,210,210,210,288,288,288,288,288,288,288,288,288,288,288,288,210,210,210,210,288,288,288,288,288,288,288,288,288,288,288,
288,288,288,288,288,288,288,288,288,288,210,210,210,17,288,288,288,288,288,288,288,288,288,288,288,288,210,210,210,17,288,288,288,288,288,288,288,288,288,210,210,210,210,210,288,288,288,288,288,288,288,288,288,210,210,210,210,288,288,288,288,288,288,288,288,288,288,288,288,210,210,210,210,288,288,288,288,288,288,288,288,288,288,288,
288,288,288,288,288,288,288,288,288,288,288,288,288,288,288,288,288,288,210,210,210,288,288,288,288,288,210,210,210,17,288,288,288,288,288,288,288,288,288,288,288,288,288,288,288,288,288,288,288,288,288,288,288,210,210,210,17,288,288,288,288,288,288,288,288,288,288,288,288,288,288,288,288,288,288,288,288,288,288,288,288,288,288,288,
210,210,210,210,210,210,288,288,288,288,288,288,288,288,288,288,288,288,210,210,210,288,288,288,288,288,288,288,288,288,288,288,288,288,288,288,288,288,288,288,288,288,288,288,288,288,288,288,288,288,288,288,288,288,288,288,288,288,288,288,288,288,210,210,210,210,288,288,288,288,288,288,288,288,288,288,288,210,210,210,210,210,210,210,
210,210,210,210,210,210,288,288,288,288,288,288,288,288,288,288,288,288,210,210,210,288,288,288,288,288,288,288,288,288,288,288,288,288,288,288,288,288,288,288,288,288,288,288,288,288,288,288,288,288,288,288,288,288,288,288,288,288,288,288,288,288,17,210,210,210,288,288,288,288,288,288,288,288,288,288,288,210,210,210,210,210,210,210,
210,210,210,210,210,210,288,288,288,288,288,288,288,288,288,288,288,288,210,210,210,288,288,288,288,288,288,288,288,288,288,288,288,288,288,288,288,288,288,288,288,288,288,288,288,288,288,288,288,288,288,288,288,288,288,288,288,288,288,288,288,288,210,210,210,210,288,288,288,288,288,288,288,288,288,288,288,210,210,210,210,210,210,210,
210,210,210,210,210,210,288,288,288,288,288,288,288,288,210,210,210,210,210,210,210,288,288,288,288,288,288,288,288,288,288,288,288,288,288,288,288,288,288,288,288,288,288,288,288,288,288,288,288,288,288,288,288,288,288,288,288,288,288,288,288,288,210,210,210,210,210,210,210,210,288,288,288,288,288,288,288,210,210,210,210,210,210,210,
288,288,288,210,210,210,288,288,288,288,288,288,288,288,210,210,210,210,210,210,210,288,288,288,288,288,210,210,210,210,288,288,288,288,288,288,288,288,288,288,288,288,288,288,288,288,288,288,288,288,288,288,288,210,210,210,210,288,288,288,288,288,210,210,210,210,210,210,210,210,288,288,288,288,288,288,288,210,210,210,288,288,288,288,
288,288,288,210,210,210,288,288,288,288,288,288,288,288,210,210,210,210,210,210,210,288,288,288,288,288,210,210,210,210,288,288,288,288,288,288,288,288,288,288,288,288,288,288,288,288,288,288,288,288,288,288,288,210,210,210,210,288,288,288,288,288,17,210,210,210,210,210,210,210,288,288,288,288,288,288,288,210,210,210,288,288,288,288,
288,288,288,210,210,210,288,288,288,288,288,288,288,288,288,288,288,288,288,288,288,288,288,288,288,288,210,210,210,210,288,288,288,288,210,210,210,210,210,210,210,210,210,210,210,210,210,210,210,288,288,288,288,210,210,210,210,288,288,288,288,288,288,288,288,288,288,288,288,288,288,288,288,288,288,288,288,210,210,210,288,288,288,288,
288,288,288,288,288,288,288,288,288,288,288,288,288,288,288,288,288,288,288,288,288,288,288,288,288,288,210,210,210,210,288,288,288,288,210,210,210,210,210,210,210,210,210,210,210,210,210,210,210,288,288,288,288,210,210,210,210,288,288,288,288,288,288,288,288,288,288,288,288,288,288,288,288,288,288,288,288,288,288,288,288,288,288,288,
288,288,288,288,288,288,288,288,288,288,288,288,288,288,288,288,288,288,288,288,288,288,288,288,288,288,210,210,210,210,288,288,288,288,288,288,288,288,288,288,210,210,210,288,288,288,288,288,288,288,288,288,288,210,210,210,210,288,288,288,288,288,288,288,288,288,288,288,288,288,288,288,288,288,288,288,288,288,288,288,288,288,288,288,
288,288,288,288,288,288,288,288,288,288,288,288,288,288,288,288,288,288,288,288,288,288,288,288,288,288,210,210,210,210,288,288,288,288,288,288,288,288,288,288,210,210,210,288,288,288,288,288,288,288,288,288,288,210,210,210,210,288,288,288,288,288,288,288,288,288,288,288,288,288,288,288,288,288,288,288,288,288,288,288,288,288,288,288,
288,288,288,288,288,288,288,288,288,288,288,288,288,288,210,210,210,210,210,210,210,210,210,210,210,210,210,210,210,210,288,288,288,288,288,288,288,288,288,288,210,210,210,288,288,288,288,288,288,288,288,288,288,210,210,210,210,210,210,210,210,210,210,210,210,210,210,210,210,210,288,288,288,288,288,288,288,288,288,288,288,288,288,288,
288,288,288,288,288,288,288,288,288,288,288,288,288,288,210,210,210,210,210,210,210,210,210,210,210,210,210,210,210,210,288,288,288,288,288,288,288,288,288,288,210,210,210,288,288,288,288,288,288,288,288,288,288,210,210,210,210,210,210,210,210,210,210,210,210,210,210,210,210,210,288,288,288,288,288,288,288,288,288,288,288,288,288,288,
288,288,288,288,288,288,288,288,288,288,288,288,288,288,210,210,210,210,210,210,210,210,210,210,210,210,210,210,210,210,288,288,288,288,288,288,288,288,288,288,210,210,210,288,288,288,288,288,288,288,288,288,288,210,210,210,210,210,210,210,210,210,210,210,210,210,210,210,210,210,288,288,288,288,288,288,288,288,288,288,288,288,288,288,
288,288,288,288,288,288,288,288,288,288,288,288,288,288,210,210,210,210,210,210,210,210,210,210,210,210,210,210,210,210,288,288,288,288,288,288,288,288,288,288,210,210,210,288,288,288,288,288,288,288,288,288,288,210,210,210,210,210,210,210,210,210,210,210,210,210,210,210,210,210,288,288,288,288,288,288,288,288,288,288,288,288,288,288,
288,288,288,288,288,288,288,288,288,288,288,288,288,288,288,288,288,288,288,288,288,288,288,288,288,288,210,210,210,210,288,288,288,288,288,288,288,288,288,288,210,210,210,288,288,288,288,288,288,288,288,288,288,210,210,210,210,288,288,288,288,288,288,288,288,288,288,288,288,288,288,288,288,288,288,288,288,288,288,288,288,288,288,288,
288,288,288,288,288,288,288,288,288,288,288,288,288,288,288,288,288,288,288,288,288,288,288,288,288,288,210,210,210,210,288,288,288,288,210,210,210,210,210,210,210,210,210,210,210,210,210,210,210,288,288,288,288,210,210,210,210,288,288,288,288,288,288,288,288,288,288,288,288,288,288,288,288,288,288,288,288,288,288,288,288,288,288,288,
288,288,288,210,210,210,288,288,288,288,288,288,288,288,288,288,288,288,288,288,288,288,288,288,288,288,210,210,210,210,288,288,288,288,210,210,210,210,210,210,210,210,210,210,210,210,210,17,17,288,288,288,288,210,210,210,210,288,288,288,288,288,288,288,288,288,288,288,288,288,288,288,288,288,288,288,288,210,210,210,288,288,288,288,
288,288,288,210,210,210,288,288,288,288,288,288,288,288,288,288,288,288,288,288,288,288,288,288,288,288,210,210,210,210,288,288,288,288,288,288,288,288,288,288,288,288,288,288,288,288,288,288,288,288,288,288,288,210,210,210,210,288,288,288,288,288,288,288,288,288,288,288,288,288,288,288,288,288,288,288,288,210,210,210,288,288,288,288,
288,288,288,210,210,210,288,288,288,288,288,288,288,288,210,210,210,210,210,210,210,288,288,288,288,288,210,210,210,210,288,288,288,288,288,288,288,288,288,288,288,288,288,288,288,288,288,288,288,288,288,288,288,210,210,210,210,288,288,288,288,288,210,210,210,210,210,210,210,288,288,288,288,288,288,288,288,210,210,210,288,288,288,288,
210,210,210,210,210,210,288,288,288,288,288,288,288,288,17,210,210,210,210,210,210,288,288,288,288,288,288,288,288,288,288,288,288,288,288,288,288,288,288,288,288,288,288,288,288,288,288,288,288,288,288,288,288,288,288,288,288,288,288,288,288,288,210,210,210,210,210,210,210,288,288,288,288,288,288,288,288,210,210,210,210,210,210,210,
210,210,210,210,210,210,288,288,288,288,288,288,288,288,288,288,288,288,210,210,210,288,288,288,288,288,288,288,288,288,288,288,288,288,288,288,288,288,288,288,288,288,288,288,288,288,288,288,288,288,288,288,288,288,288,288,288,288,288,288,288,288,210,210,210,210,210,210,210,288,288,288,288,288,288,288,288,210,210,210,210,210,210,210,
210,210,210,210,210,210,288,288,288,288,288,288,288,288,288,288,288,288,210,210,210,288,288,288,288,288,288,288,288,288,288,288,288,288,288,288,288,288,288,288,288,288,288,288,288,288,288,288,288,288,288,288,288,288,288,288,288,288,288,288,288,288,210,210,210,210,288,288,288,288,288,288,288,288,288,288,288,210,210,210,210,210,210,210,
210,210,210,210,210,210,288,288,288,288,288,288,288,288,288,288,288,288,210,210,210,288,288,288,288,288,288,288,288,288,288,288,288,288,288,288,288,288,288,288,288,288,288,288,288,288,288,288,288,288,288,288,288,288,288,288,288,288,288,288,288,288,210,210,210,210,288,288,288,288,288,288,288,288,288,288,288,210,210,210,210,210,210,210,
288,288,288,288,288,288,288,288,288,288,288,288,288,288,288,288,288,288,210,210,210,288,288,288,288,288,210,210,210,210,288,288,288,288,288,288,288,288,288,288,288,288,288,288,288,288,288,288,288,288,288,288,288,210,210,210,210,288,288,288,288,288,210,210,210,210,288,288,288,288,288,288,288,288,288,288,288,288,288,288,288,288,288,288,
288,288,288,288,288,288,288,288,288,288,17,210,210,210,288,288,288,288,288,288,288,288,288,288,288,288,210,210,210,210,288,288,288,288,288,288,288,288,288,210,210,210,210,210,288,288,288,288,288,288,288,288,288,210,210,210,210,288,288,288,288,288,288,288,288,288,288,288,288,210,210,210,210,288,288,288,288,288,288,288,288,288,288,288,
288,288,288,288,288,288,288,288,288,288,210,210,210,17,288,288,288,288,288,288,288,288,288,288,288,288,210,210,210,210,288,288,288,288,288,288,288,288,288,210,210,210,210,210,288,288,288,288,288,288,288,288,288,210,210,210,210,288,288,288,288,288,288,288,288,288,288,288,288,210,210,210,210,288,288,288,288,288,288,288,288,288,288,288,
288,288,288,288,288,288,288,288,288,288,210,210,210,210,288,288,288,288,288,288,288,288,288,288,288,288,210,210,210,210,288,288,288,288,288,288,288,288,288,210,210,210,210,210,288,288,288,288,288,288,288,288,288,210,210,210,210,288,288,288,288,288,288,288,288,288,288,288,288,210,210,210,210,288,288,288,288,288,288,288,288,288,288,288,
288,288,288,288,288,288,288,288,288,288,210,210,210,210,288,288,288,288,288,288,288,288,210,210,210,210,210,210,210,210,210,210,210,210,288,288,288,288,288,210,210,210,210,210,288,288,288,288,288,210,210,210,210,210,210,210,210,210,210,210,210,288,288,288,288,288,288,288,288,210,210,210,210,288,288,288,288,288,288,288,288,288,288,288,
288,288,288,210,210,210,210,210,210,210,210,210,210,210,288,288,288,288,288,288,288,288,210,210,210,210,210,210,210,210,210,210,210,210,288,288,288,288,288,210,210,210,210,210,288,288,288,288,288,210,210,210,210,210,210,210,210,210,210,210,210,288,288,288,288,288,288,288,288,210,210,210,210,210,210,210,210,210,210,210,288,288,288,288,
288,288,288,210,210,210,210,210,210,210,210,210,210,210,288,288,288,288,288,288,288,288,210,210,210,210,210,210,210,210,210,210,210,210,288,288,288,288,288,210,210,210,210,210,288,288,288,288,288,210,210,210,210,210,210,210,210,210,210,210,210,288,288,288,288,288,288,288,288,210,210,210,210,210,210,210,210,210,210,210,288,288,288,288,
288,288,288,210,210,210,210,210,210,210,210,210,210,210,288,288,288,288,288,288,288,288,210,210,210,210,210,210,210,210,210,210,210,210,288,288,288,288,288,210,210,210,210,210,288,288,288,288,288,210,210,210,210,210,210,210,210,210,210,210,210,288,288,288,288,288,288,288,288,210,210,210,210,210,210,210,210,210,210,210,288,288,288,288,
288,288,288,288,288,288,288,288,288,288,288,288,288,288,288,288,288,288,288,288,288,288,288,288,288,288,288,288,288,288,288,288,288,288,288,288,288,288,288,288,288,288,288,288,288,288,288,288,288,288,288,288,288,288,288,288,288,288,288,288,288,288,288,288,288,288,288,288,288,288,288,288,288,288,288,288,288,288,288,288,288,288,288,288,
288,288,288,288,288,288,288,288,288,288,288,288,288,288,288,288,288,288,288,288,288,288,288,288,288,288,288,288,288,288,288,288,288,288,288,288,288,288,288,288,288,288,288,288,288,288,288,288,288,288,288,288,288,288,288,288,288,288,288,288,288,288,288,288,288,288,288,288,288,288,288,288,288,288,288,288,288,288,288,288,288,288,288,288,
288,288,288,288,288,288,288,288,288,288,288,288,288,288,288,288,288,288,288,288,288,288,288,288,288,288,288,288,288,288,288,288,288,288,288,288,288,288,288,288,288,288,288,288,288,288,288,288,288,288,288,288,288,288,288,288,288,288,288,288,288,288,288,288,288,288,288,288,288,288,288,288,288,288,288,288,288,288,288,288,288,288,288,288
</data>
 </layer>
 <objectgroup id="3" name="物件層 1">
  <object id="1" x="54.9119" y="56.9087" width="195.686" height="69.8878"/>
  <object id="2" x="411.34" y="50.9183" width="178.713" height="76.8766"/>
  <object id="3" x="178.713" y="127.795" width="69.8878" height="50.9183"/>
  <object id="4" x="458.265" y="115.814" width="1.9968" height="1.9968"/>
  <object id="5" x="327.474" y="560.101" width="47.9231" height="72.883"/>
  <object id="6" x="253.593" y="522.162" width="122.803" height="34.9439"/>
  <object id="7" x="613.016" y="472.242" width="270.566" height="29.9519"/>
  <object id="8" x="611.02" y="304.511" width="274.559" height="37.9391"/>
  <object id="9" x="252.595" y="255.59" width="75.8782" height="51.9166"/>
  <object id="10" x="468.248" y="130.79" width="68.8894" height="66.8926"/>
  <object id="11" x="717.848" y="343.449" width="54.9119" height="127.795"/>
  <object id="12" x="706.866" y="54.9119" width="81.8686" height="122.803"/>
  <object id="13" x="327.474" y="180.71" width="50.9182" height="125.798"/>
  <object id="14" x="903.55" y="54.9119" width="173.721" height="70.8862"/>
  <object id="15" x="956.465" y="615.013" width="66.8926" height="70.8862"/>
  <object id="16" x="883.582" y="685.899" width="211.66" height="69.8878"/>
  <object id="17" x="959.46" y="124.8" width="61.9007" height="72.883"/>
  <object id="18" x="1242.01" y="51.9167" width="199.68" height="72.883"/>
  <object id="19" x="1188.09" y="523.16" width="51.9166" height="51.9167"/>
  <object id="20" x="1115.21" y="200.678" width="71.8846" height="105.83"/>
  <object id="21" x="1115.21" y="523.16" width="72.8831" height="109.824"/>
  <object id="23" x="1188.09" y="252.595" width="68.8894" height="53.9134"/>
  <object id="25" x="396.364" y="687.896" width="212.659" height="65.8942"/>
  <object id="26" x="471.244" y="616.011" width="64.8958" height="73.8814"/>
  <object id="28" x="705.867" y="632.984" width="82.867" height="119.808"/>
  <object id="30" x="54.9119" y="704.869" width="125.798" height="49.9199"/>
  <object id="33" x="181.708" y="630.987" width="67.891" height="125.798"/>
  <object id="34" x="1244" y="634.981" width="65.8942" height="68.8894"/>
  <object id="35" x="1245" y="704.869" width="194.688" height="52.9151"/>
  <object id="36" x="1241.01" y="124.8" width="72.883" height="52.9151"/>
  <object id="61" x="-1.9968" y="202.675" width="108.826" height="64.8958"/>
  <object id="50" x="56.9087" y="269.567" width="49.9199" height="49.9199"/>
  <object id="51" x="57.9071" y="487.218" width="48.9214" height="57.9071"/>
  <object id="52" x="0.998398" y="544.127" width="105.83" height="69.8878"/>
  <object id="53" x="252.595" y="380.389" width="217.651" height="67.891"/>
  <object id="54" x="471.244" y="268.569" width="67.891" height="274.56"/>
  <object id="55" x="959.461" y="268.569" width="60.9023" height="272.562"/>
  <object id="56" x="1022.36" y="381.388" width="238.617" height="64.8958"/>
  <object id="57" x="1386.78" y="199.68" width="124.8" height="65.8942"/>
  <object id="58" x="1387.77" y="267.571" width="47.923" height="56.9087"/>
  <object id="59" x="1384.78" y="490.213" width="50.9182" height="54.9119"/>
  <object id="60" x="1384.77" y="545.125" width="124.8" height="63.8974"/>
 </objectgroup>
</map>
